X:1
T:In Allen Meinen Thathen, 77.67.76
T:In Allen Meinen Thathen, 77.67.76
T:Davidisches Harfen- und Psalterspiel, 1744
T:Public Domain Courtesy of the Cyber Hymnal™
C:Davidisches Harfen- und Psalterspiel, 1744
Z:Public Domain
Z:Courtesy of the Cyber Hymnal™
%%score ( 1 2 ) ( 3 4 )
L:1/8
Q:1/4=110
M:none
K:F
V:1 treble 
V:2 treble 
V:3 bass 
V:4 bass 
V:1
 [FA]2 | [FA]2 [Fc]2 [FB]2 [FA]2 | G4 F2 !breath![EG]2 | [DG]2 [EG]2 (A=B) [Ec]2 | %4
 c2 =B2 [Ec]2 !breath![Fd]2 | [Ec]2 B2 [FA]2 [FB]2 | !fermata![EG]6 [EG]2 | %7
 [CG]2 [EG]2 [FA]2 [EG]2 | F4 [CE]2 !breath![EG]2 | G2 [EG]2 [FA]2 [Fc]2 | B4 [FA]2 !breath![Ec]2 | %11
 [DF]2 (BA) [FG]2 [EG]2 | !fermata!F4 |] %13
V:2
 x2 | x8 | (F2 E2) F2 x2 | x4 F2 x2 | D4 x4 | x2 (FG) x4 | x8 | x8 | (D2 =B,2) x4 | G2 x6 | %10
 (F2 E2) x4 | x2 F2 x4 | F4 |] %13
V:3
 [F,C]2 | [D,D]2 [A,,C]2 [B,,D]2 [F,C]2 | (C3 B,) [F,A,]2 [C,C]2 | [=B,,G,]2 [C,C]2 C2 [A,C]2 | %4
 [F,A,]2 G,2 [C,G,]2 [B,,B,]2 | [C,G,]2 D2 [F,C]2 [B,,D]2 | [C,C]6 [C,C]2 | %7
 [E,G,]2 [C,C]2 [F,C]2 [C,C]2 | (A,2 G,F,) [C,G,]2 [C,C]2 | [E,C]2 [C,C]2 [F,C]2 [A,C]2 | %10
 (D2 CB,) [F,C]2 [A,,C]2 | [D,A,]2 [B,,D]2 [C,G,]2 (CB,) | !fermata![F,,A,]4 |] %13
V:4
 x2 | x8 | C,4 x4 | x4 (F,G,) x2 | x2 G,2 x4 | x2 (D,E,) x4 | x8 | x8 | D,4 x4 | x8 | G,4 x4 | %11
 x6 C,2 | x4 |] %13

